src/assets/icons/weeks,fancy,20.svg

<svg width="48" height="48" viewBox="0 0 48 48" fill="none" xmlns="http://www.w3.org/2000/svg">
<rect opacity="0.2" x="4" y="6" width="40" height="40" rx="4" fill="black"/>
<path d="M7.19354 41H21.7106V37.4801H13.1594V37.3409L16.1325 34.4276C20.3185 30.6094 21.4421 28.7003 21.4421 26.3835C21.4421 22.8537 18.5586 20.358 14.1935 20.358C9.91797 20.358 6.98473 22.9134 6.99467 26.9105H11.0813C11.0714 24.9616 12.3043 23.7685 14.1637 23.7685C15.9535 23.7685 17.2859 24.8821 17.2859 26.6719C17.2859 28.2926 16.2915 29.4062 14.4421 31.1861L7.19354 37.8977V41ZM32.8146 41.4474C37.9354 41.4474 41.0277 37.5497 41.0376 30.8381C41.0476 24.1761 37.9155 20.358 32.8146 20.358C27.7038 20.358 24.6016 24.1662 24.5916 30.8381C24.5717 37.5298 27.6839 41.4375 32.8146 41.4474ZM32.8146 37.8778C30.478 37.8778 28.9666 35.5312 28.9766 30.8381C28.9865 26.2145 30.4879 23.8878 32.8146 23.8878C35.1314 23.8878 36.6428 26.2145 36.6428 30.8381C36.6527 35.5312 35.1413 37.8778 32.8146 37.8778Z" fill="black"/>
<g opacity="0.4">
<path d="M10 4C10 2.89543 10.8954 2 12 2C13.1046 2 14 2.89543 14 4V8C14 9.10457 13.1046 10 12 10C10.8954 10 10 9.10457 10 8V4Z" fill="black"/>
<path d="M34 4C34 2.89543 34.8954 2 36 2C37.1046 2 38 2.89543 38 4V8C38 9.10457 37.1046 10 36 10C34.8954 10 34 9.10457 34 8V4Z" fill="black"/>
</g>
<path fill-rule="evenodd" clip-rule="evenodd" d="M10 6.00869C7.52043 6.04456 6.11466 6.22849 5.17157 7.17157C4 8.34315 4 10.2288 4 14V16H44V14C44 10.2288 44 8.34315 42.8284 7.17157C41.8853 6.22849 40.4796 6.04456 38 6.00869V8C38 9.10457 37.1046 10 36 10C34.8954 10 34 9.10457 34 8V6H14V8C14 9.10457 13.1046 10 12 10C10.8954 10 10 9.10457 10 8V6.00869Z" fill="black"/>
</svg>

<svg xmlns="http://www.w3.org/2000/svg" width="48" height="48" fill="none" viewBox="0 0 48 48">
  <rect width="40" height="40" x="4" y="6" fill="#000" opacity=".2" rx="4"/>
  <path fill="#000" d="M7.194 41H21.71v-3.52h-8.552v-.14l2.973-2.912c4.186-3.819 5.31-5.728 5.31-8.044 0-3.53-2.883-6.026-7.248-6.026-4.276 0-7.21 2.555-7.2 6.552h4.087c-.01-1.948 1.223-3.142 3.083-3.142 1.79 0 3.122 1.114 3.122 2.904 0 1.62-.995 2.734-2.844 4.514l-7.248 6.712V41zm25.62.447c5.121 0 8.214-3.897 8.224-10.609.01-6.662-3.122-10.48-8.223-10.48-5.111 0-8.213 3.808-8.223 10.48-.02 6.692 3.092 10.6 8.223 10.61zm0-3.57c-2.336 0-3.847-2.346-3.837-7.039.01-4.623 1.51-6.95 3.838-6.95 2.316 0 3.828 2.326 3.828 6.95.01 4.693-1.502 7.04-3.828 7.04z"/>
  <g opacity=".4">
    <path fill="#000" d="M10 4a2 2 0 114 0v4a2 2 0 11-4 0V4zM34 4a2 2 0 114 0v4a2 2 0 11-4 0V4z"/>
  </g>
  <path fill="#000" fill-rule="evenodd" d="M10 6.009c-2.48.036-3.885.22-4.828 1.163C4 8.343 4 10.229 4 14v2h40v-2c0-3.771 0-5.657-1.172-6.828-.943-.944-2.348-1.127-4.828-1.163V8a2 2 0 11-4 0V6H14v2a2 2 0 11-4 0V6.009z" clip-rule="evenodd"/>
</svg>
